!!!SOCIAL_FUNCTION:	social gatherings
!!!PDT:	1939
!!!OTL: No_87_Courtesy_Song_(a).krn
!!!LANG: Non-Tone
!!!LING_GROUP: Wakashan
!!!REG: Pacific Northwest
**kern
*staff1
=1-
*clefF4
*k[b-e-]
*M2/4
4r
8r
16r
16d\
=2
4f\
8.f\L
16d\Jk
=3
8.g\L
16f\Jk
4f\
=4
4f\
4d\
=5
16g\LK
8f\
16f\Jk
16f\LK
8.d\J
=6||
*M3/4
4f\
4d\
24B-\LL
24G\
24F\JJ
8r
=7||
*M2/4
16f\LK
8f\
16f\Jk
16f\LK
8.d\J
=8||
*M3/4
16g\LK
8.f\J
4d\
12c\L
12B-\
12G\J
=9
8c\L
8A\J
4.G\
8F\
=10
12G\L
12F\
12G\J
4F\
4r
=11||
*M2/4
16G\LK
8.F\J
4F\
=12
4F\
4r
=13
16G\LK
8.F\J
4F\
==
*-
